images/conversions.svg

<svg viewBox="0 0 800 801" xmlns="http://www.w3.org/2000/svg" fill-rule="evenodd" clip-rule="evenodd" stroke-linejoin="round" stroke-miterlimit="1.414"><path d="M613.852 468.258h-19.92a7.708 7.708 0 0 0-7.708 7.708v2.567c0 .108.013.214.02.32h17.01l10.598-10.595z" fill="#fcb" fill-rule="nonzero"/><path d="M610.998 461.613l-12.936 12.945a7.674 7.674 0 0 0-2.17 4.346h12.81l17.29-17.29h-14.994zM550.052 447.64a5.224 5.224 0 0 1 5.222-5.22h38.443a5.218 5.218 0 0 1 5.22 5.22 5.22 5.22 0 0 1-5.22 5.22h-38.443a5.225 5.225 0 0 1-5.222-5.22" fill="#fcb" fill-rule="nonzero"/><path d="M615.796 465.85c7.49 0 13.564-6.074 13.56-13.564v-22.04c.004-7.487-6.07-13.56-13.56-13.56h-22.034c-7.49 0-13.565 6.073-13.565 13.56v22.04c0 7.49 6.07 13.563 13.565 13.563h22.034z" fill="#fcb" fill-rule="nonzero"/><path d="M565.948 421.905a5.22 5.22 0 0 1 5.22-5.22h24.62a5.22 5.22 0 0 1 0 10.44h-24.62a5.22 5.22 0 0 1-5.22-5.22M559.036 434.683a5.222 5.222 0 0 1 5.222-5.222H602.7a5.223 5.223 0 0 1 5.223 5.223c0 2.882-2.34 5.22-5.222 5.22H564.26a5.222 5.222 0 0 1-5.222-5.22M559.036 460.597a5.22 5.22 0 0 1 5.222-5.22h30.56a5.22 5.22 0 0 1 0 10.44h-30.56a5.224 5.224 0 0 1-5.222-5.22" fill="#fcb" fill-rule="nonzero"/><path d="M665.744 422.142h-54.04c-5.08 0-9.198 4.12-9.198 9.205v14.945a9.2 9.2 0 0 0 9.2 9.2h54.038v-33.35z" fill="#fcb" fill-rule="nonzero"/><path fill="#fff" fill-rule="nonzero" d="M642.956 416.133h23.117v45.37h-23.117z"/><path fill="#2f4962" fill-rule="nonzero" d="M650.765 414.423H800v48.79H650.765z"/><path d="M660.354 419.655a2.324 2.324 0 1 1 0 4.648 2.324 2.324 0 0 1 0-4.648" fill="#103754" fill-rule="nonzero"/><path d="M491.2 459.868h113.67c4.575 0 8.28-3.716 8.28-8.292v-149.64a8.28 8.28 0 0 0-8.28-8.28H491.2a8.28 8.28 0 0 0-8.277 8.28v149.64c0 4.576 3.706 8.292 8.278 8.292" fill="#fff" fill-rule="nonzero"/><path d="M482.923 301.936v76.048H613.15v-76.048a8.28 8.28 0 0 0-8.28-8.28H491.2a8.28 8.28 0 0 0-8.277 8.28" fill="#f1f2f2" fill-rule="nonzero"/><path d="M548.036 297.884a3.337 3.337 0 0 1 3.333 3.333 3.325 3.325 0 0 1-3.334 3.325 3.324 3.324 0 0 1-3.335-3.325 3.335 3.335 0 0 1 3.336-3.333M548.036 448.13a1.88 1.88 0 0 1 1.877 1.88c0 1.04-.84 1.874-1.877 1.874a1.874 1.874 0 0 1-1.878-1.875 1.88 1.88 0 0 1 1.878-1.88M497.7 309.72H598.38V443.8H497.7z" fill="#2c465f" fill-rule="nonzero"/><path d="M559.31 429.28l-4.367 3.223-29.497-39.995 17.772-25.998-28.43-41.515 4.48-3.065 30.524 44.578-17.69 25.877 27.207 36.894z" fill="#fec00f" fill-rule="nonzero"/><path d="M528.77 321.553v4.342h-9.573v9.577h-4.343v-13.92h13.917z" fill="#fec00f" fill-rule="nonzero"/><path d="M545.483 360.886a5.968 5.968 0 0 0-5.97 5.97 5.97 5.97 0 1 0 5.97-5.97M528.77 386.39a5.967 5.967 0 0 0-5.967 5.967 5.966 5.966 0 0 0 5.968 5.967 5.97 5.97 0 0 0 5.974-5.967 5.97 5.97 0 0 0-5.973-5.968" fill="#15b0bf" fill-rule="nonzero"/><path fill="#a6dae9" fill-rule="nonzero" d="M562.846 385.774h27.756v48.792h-27.756z"/><path fill="#f07549" fill-rule="nonzero" d="M562.846 321.553h7.5v55.21h-7.5zM583.102 321.553h7.5v55.21h-7.5zM572.974 321.553h7.503v55.21h-7.503z"/><path d="M610.75 367.512h-20.136a7.796 7.796 0 0 0-7.795 7.795v2.595c0 .11.013.217.02.324h17.2l10.71-10.714z" fill="#fcb" fill-rule="nonzero"/><path d="M607.866 360.797l-13.08 13.083a7.81 7.81 0 0 0-2.195 4.395h12.955l17.48-17.478h-15.16zM563.017 346.67a5.28 5.28 0 0 1 5.277-5.28h38.866a5.278 5.278 0 1 1 0 10.557h-38.866a5.28 5.28 0 0 1-5.277-5.278" fill="#fcb" fill-rule="nonzero"/><path d="M612.717 365.077c7.572 0 13.713-6.14 13.71-13.713v-22.28c.003-7.57-6.138-13.71-13.71-13.71H590.44c-7.573 0-13.714 6.14-13.714 13.71v22.28c0 7.573 6.138 13.713 13.713 13.713h22.277z" fill="#fcb" fill-rule="nonzero"/><path d="M567.405 320.65a5.28 5.28 0 0 1 5.278-5.276h24.89a5.277 5.277 0 0 1 0 10.554h-24.89a5.275 5.275 0 0 1-5.278-5.278M563.013 333.567a5.28 5.28 0 0 1 5.278-5.278h38.867a5.278 5.278 0 0 1 0 10.555H568.29a5.277 5.277 0 0 1-5.277-5.278M550.052 359.77a5.28 5.28 0 0 1 5.28-5.278h36.175a5.278 5.278 0 0 1 0 10.554h-36.174a5.282 5.282 0 0 1-5.28-5.275" fill="#fcb" fill-rule="nonzero"/><path d="M663.848 320.892H608.58c-5.136 0-9.298 4.165-9.298 9.302v15.113c0 5.135 4.162 9.303 9.298 9.303h55.268v-33.718z" fill="#fcb" fill-rule="nonzero"/><path fill="#fff" fill-rule="nonzero" d="M640.81 314.813h23.37v45.87h-23.37z"/><path fill="#2f4962" fill-rule="nonzero" d="M648.704 313.087H800v49.325H648.704z"/><path d="M658.397 318.378a2.35 2.35 0 1 1 .004 4.696 2.35 2.35 0 0 1-.004-4.696" fill="#103754" fill-rule="nonzero"/></svg>

<?xml version="1.0" standalone="no"?>
<!DOCTYPE svg PUBLIC "-//W3C//DTD SVG 1.1//EN" "http://www.w3.org/Graphics/SVG/1.1/DTD/svg11.dtd">
<svg width="100%" height="100%" viewBox="0 0 800 801" version="1.1" xmlns="http://www.w3.org/2000/svg" xmlns:xlink="http://www.w3.org/1999/xlink" xml:space="preserve" style="fill-rule:evenodd;clip-rule:evenodd;stroke-linejoin:round;stroke-miterlimit:1.41421;">
    <path d="M613.852,468.258L593.933,468.258C589.677,468.258 586.224,471.706 586.224,475.966L586.224,478.533C586.224,478.641 586.237,478.747 586.245,478.853L603.253,478.853L613.852,468.258Z" style="fill:rgb(255,204,187);fill-rule:nonzero;"/>
    <path d="M610.998,461.613L598.062,474.558C596.839,475.78 596.123,477.312 595.891,478.904L608.701,478.904L625.991,461.613L610.998,461.613Z" style="fill:rgb(255,204,187);fill-rule:nonzero;"/>
    <path d="M550.052,447.641C550.052,444.759 552.394,442.421 555.274,442.421L593.717,442.421C596.598,442.417 598.936,444.759 598.936,447.641C598.936,450.521 596.598,452.86 593.717,452.86L555.274,452.86C552.394,452.86 550.052,450.521 550.052,447.641" style="fill:rgb(255,204,187);fill-rule:nonzero;"/>
    <path d="M615.796,465.849C623.285,465.849 629.36,459.776 629.356,452.286L629.356,430.246C629.36,422.759 623.285,416.686 615.796,416.686L593.762,416.686C586.272,416.686 580.197,422.759 580.197,430.246L580.197,452.286C580.197,459.776 586.268,465.849 593.762,465.849L615.796,465.849Z" style="fill:rgb(255,204,187);fill-rule:nonzero;"/>
    <path d="M565.948,421.905C565.948,419.023 568.285,416.685 571.167,416.685L595.788,416.685C598.672,416.685 601.011,419.023 601.011,421.905C601.011,424.789 598.672,427.125 595.788,427.125L571.167,427.125C568.285,427.125 565.948,424.789 565.948,421.905" style="fill:rgb(255,204,187);fill-rule:nonzero;"/>
    <path d="M559.036,434.683C559.036,431.799 561.374,429.461 564.258,429.461L602.701,429.461C605.584,429.461 607.923,431.799 607.923,434.683C607.923,437.565 605.584,439.903 602.701,439.903L564.258,439.903C561.374,439.903 559.036,437.565 559.036,434.683" style="fill:rgb(255,204,187);fill-rule:nonzero;"/>
    <path d="M559.036,460.597C559.036,457.713 561.377,455.378 564.258,455.378L594.818,455.378C597.699,455.378 600.039,457.713 600.039,460.597C600.039,463.479 597.699,465.817 594.818,465.817L564.258,465.817C561.377,465.817 559.036,463.479 559.036,460.597" style="fill:rgb(255,204,187);fill-rule:nonzero;"/>
    <path d="M665.744,422.142L611.705,422.142C606.623,422.142 602.506,426.262 602.506,431.347L602.506,446.292C602.506,451.374 606.623,455.493 611.705,455.493L665.744,455.493L665.744,422.142Z" style="fill:rgb(255,204,187);fill-rule:nonzero;"/>
    <rect x="642.956" y="416.133" width="23.117" height="45.369" style="fill:white;fill-rule:nonzero;"/>
    <rect x="650.765" y="414.423" width="149.235" height="48.79" style="fill:rgb(47,73,98);fill-rule:nonzero;"/>
    <path d="M660.354,419.655C661.637,419.655 662.678,420.697 662.678,421.98C662.678,423.263 661.637,424.303 660.354,424.303C659.074,424.303 658.032,423.263 658.032,421.98C658.032,420.697 659.071,419.655 660.354,419.655" style="fill:rgb(16,55,84);fill-rule:nonzero;"/>
    <path d="M491.201,459.868L604.869,459.868C609.445,459.868 613.15,456.152 613.15,451.576L613.15,301.936C613.15,297.366 609.445,293.657 604.869,293.657L491.201,293.657C486.629,293.657 482.923,297.366 482.923,301.936L482.923,451.576C482.923,456.152 486.629,459.868 491.201,459.868" style="fill:white;fill-rule:nonzero;"/>
    <path d="M482.923,301.936L482.923,377.984L613.151,377.984L613.151,301.936C613.151,297.366 609.445,293.657 604.869,293.657L491.201,293.657C486.629,293.657 482.923,297.366 482.923,301.936" style="fill:rgb(241,242,242);fill-rule:nonzero;"/>
    <path d="M548.036,297.884C549.872,297.884 551.369,299.377 551.369,301.217C551.369,303.064 549.872,304.542 548.036,304.542C546.195,304.542 544.701,303.064 544.701,301.217C544.701,299.377 546.195,297.884 548.036,297.884" style="fill:rgb(44,70,95);fill-rule:nonzero;"/>
    <path d="M548.036,448.129C549.072,448.129 549.913,448.972 549.913,450.009C549.913,451.049 549.072,451.884 548.036,451.884C547,451.884 546.158,451.049 546.158,450.009C546.158,448.972 547,448.129 548.036,448.129" style="fill:rgb(44,70,95);fill-rule:nonzero;"/>
    <rect x="497.701" y="309.719" width="100.677" height="134.082" style="fill:rgb(44,70,95);fill-rule:nonzero;"/>
    <path d="M559.309,429.279L554.943,432.503L525.446,392.508L543.218,366.51L514.789,324.995L519.267,321.93L549.792,366.508L532.103,392.385L559.309,429.279Z" style="fill:rgb(254,192,15);fill-rule:nonzero;"/>
    <path d="M528.771,321.553L528.771,325.895L519.197,325.895L519.197,335.472L514.854,335.472L514.854,321.553L528.771,321.553Z" style="fill:rgb(254,192,15);fill-rule:nonzero;"/>
    <path d="M545.483,360.886C542.185,360.886 539.514,363.558 539.514,366.855C539.514,370.151 542.185,372.824 545.483,372.824C548.78,372.824 551.453,370.151 551.453,366.855C551.453,363.558 548.78,360.886 545.483,360.886" style="fill:rgb(21,176,191);fill-rule:nonzero;"/>
    <path d="M528.771,386.389C525.473,386.389 522.803,389.061 522.803,392.357C522.803,395.653 525.473,398.324 528.771,398.324C532.069,398.324 534.744,395.653 534.744,392.357C534.744,389.061 532.069,386.389 528.771,386.389" style="fill:rgb(21,176,191);fill-rule:nonzero;"/>
    <rect x="562.846" y="385.774" width="27.756" height="48.792" style="fill:rgb(166,218,233);fill-rule:nonzero;"/>
    <rect x="562.846" y="321.553" width="7.501" height="55.209" style="fill:rgb(240,117,73);fill-rule:nonzero;"/>
    <rect x="583.102" y="321.553" width="7.5" height="55.209" style="fill:rgb(240,117,73);fill-rule:nonzero;"/>
    <rect x="572.974" y="321.553" width="7.503" height="55.209" style="fill:rgb(240,117,73);fill-rule:nonzero;"/>
    <path d="M610.751,367.512L590.614,367.512C586.311,367.512 582.819,371.001 582.819,375.307L582.819,377.902C582.819,378.011 582.833,378.119 582.84,378.226L600.039,378.226L610.751,367.512Z" style="fill:rgb(255,204,187);fill-rule:nonzero;"/>
    <path d="M607.866,360.797L594.787,373.88C593.553,375.12 592.826,376.67 592.591,378.275L605.545,378.275L623.024,360.797L607.866,360.797Z" style="fill:rgb(255,204,187);fill-rule:nonzero;"/>
    <path d="M563.017,346.669C563.017,343.757 565.381,341.391 568.294,341.391L607.16,341.391C610.073,341.39 612.435,343.757 612.435,346.669C612.435,349.582 610.073,351.947 607.16,351.947L568.294,351.947C565.381,351.947 563.017,349.582 563.017,346.669" style="fill:rgb(255,204,187);fill-rule:nonzero;"/>
    <path d="M612.717,365.077C620.289,365.077 626.43,358.937 626.427,351.364L626.427,329.083C626.43,321.514 620.289,315.373 612.717,315.373L590.439,315.373C582.867,315.373 576.726,321.514 576.726,329.083L576.726,351.364C576.726,358.937 582.864,365.077 590.439,365.077L612.717,365.077Z" style="fill:rgb(255,204,187);fill-rule:nonzero;"/>
    <path d="M567.405,320.65C567.405,317.74 569.767,315.374 572.683,315.374L597.573,315.374C600.489,315.374 602.853,317.74 602.853,320.65C602.853,323.568 600.489,325.928 597.573,325.928L572.683,325.928C569.767,325.928 567.405,323.568 567.405,320.65" style="fill:rgb(255,204,187);fill-rule:nonzero;"/>
    <path d="M563.013,333.567C563.013,330.654 565.377,328.289 568.291,328.289L607.157,328.289C610.073,328.289 612.438,330.654 612.438,333.567C612.438,336.483 610.073,338.844 607.157,338.844L568.291,338.844C565.377,338.844 563.013,336.483 563.013,333.567" style="fill:rgb(255,204,187);fill-rule:nonzero;"/>
    <path d="M550.052,359.771C550.052,356.852 552.421,354.492 555.333,354.492L591.507,354.492C594.421,354.492 596.786,356.852 596.786,359.771C596.786,362.682 594.421,365.046 591.507,365.046L555.333,365.046C552.421,365.046 550.052,362.682 550.052,359.771" style="fill:rgb(255,204,187);fill-rule:nonzero;"/>
    <path d="M663.848,320.892L608.58,320.892C603.444,320.892 599.282,325.057 599.282,330.194L599.282,345.307C599.282,350.442 603.444,354.61 608.58,354.61L663.848,354.61L663.848,320.892Z" style="fill:rgb(255,204,187);fill-rule:nonzero;"/>
    <rect x="640.81" y="314.813" width="23.37" height="45.869" style="fill:white;fill-rule:nonzero;"/>
    <rect x="648.704" y="313.087" width="151.296" height="49.325" style="fill:rgb(47,73,98);fill-rule:nonzero;"/>
    <path d="M658.397,318.378C659.694,318.378 660.748,319.432 660.748,320.726C660.748,322.026 659.694,323.075 658.397,323.075C657.105,323.075 656.05,322.026 656.05,320.726C656.05,319.432 657.103,318.378 658.397,318.378" style="fill:rgb(16,55,84);fill-rule:nonzero;"/>
</svg>
